X:656
T:Pigeon on the Gate, The
R:reel
S:Jerry Holland
H:See also #140, #141, #532, #653, #654, #655
H:A Gm version of the Edor tune.
N:From "canadian.abc"
Z:id:hn-reel-656
Z:I have changed the e's in the second part to =e, which sounds better.
M:C|
K:Gm
zc|:dG (3GGG {e}dcAc|d2 de dcAB|cF (3FFF cFAB|c2 cf dcBc|
dG (3GGG {e}dcAc|d2 de dcAG|FAcf afga|fdcA GABc:|
|:dg (3ggg fagf|dgga bgaf|dcd=e fgfd|cA f2 fgaf|
dg (3ggg fagf|dgga bgaf|dcd=e fgfd|1 cAFA GABc:|2 cAFA G2||
